X:58
T:Dandy O. JGi.058
O:Tealby,Lincolnshire
N:Version of Yankee Doodle Dandy
N:Wrongly called “A Andy O” in published version
M:2/4
L:1/8
Q:1/4=120
S:Joshua Gibbons MS,1823,Tealby,Lincs.
R:quick step
Z:VMP/R.Greig, 2009
K:D
A|Addd|(dc).B.A|(Ad).d.d|(dc).B.A|(Ad).d.d|dfaf|e2A2|A2ze|
fefg|a2fd|dBAG|F2AA|BcdB|edcB|A2d2|d4||

